Newaita-dark/.places-blue/32/folder-books.svg

<?xml version="1.0" encoding="UTF-8"?>
<svg xmlns="http://www.w3.org/2000/svg" xmlns:xlink="http://www.w3.org/1999/xlink" width="32pt" height="32pt" viewBox="0 0 32 32" version="1.1">
<defs>
<linearGradient id="linear0" gradientUnits="userSpaceOnUse" x1="254" y1="233.5" x2="254" y2="254.666672" gradientTransform="matrix(0.062506,0,0,0.062506,-0.00000381506,13.438785)">
<stop offset="0" style="stop-color:rgb(0%,0%,0%);stop-opacity:0.27451;"/>
<stop offset="1" style="stop-color:rgb(0%,0%,0%);stop-opacity:0;"/>
</linearGradient>
<radialGradient id="radial0" gradientUnits="userSpaceOnUse" cx="450.908936" cy="189.579361" fx="450.908936" fy="189.579361" r="21.166656" gradientTransform="matrix(0.00000017417,-0.0781325,-0.140638,-0.000000101539,54.115213,63.595333)">
<stop offset="0" style="stop-color:rgb(0%,0%,0%);stop-opacity:0.313725;"/>
<stop offset="0.222222" style="stop-color:rgb(0%,0%,0%);stop-opacity:0.27451;"/>
<stop offset="1" style="stop-color:rgb(0%,0%,0%);stop-opacity:0;"/>
</radialGradient>
<radialGradient id="radial1" gradientUnits="userSpaceOnUse" cx="450.908936" cy="189.579361" fx="450.908936" fy="189.579361" r="21.166656" gradientTransform="matrix(-0.00000017417,0.0781325,0.140638,0.000000101539,-22.362178,-7.527479)">
<stop offset="0" style="stop-color:rgb(0%,0%,0%);stop-opacity:0.313725;"/>
<stop offset="0.222222" style="stop-color:rgb(0%,0%,0%);stop-opacity:0.27451;"/>
<stop offset="1" style="stop-color:rgb(0%,0%,0%);stop-opacity:0;"/>
</radialGradient>
<radialGradient id="radial2" gradientUnits="userSpaceOnUse" cx="450.908936" cy="189.579361" fx="450.908936" fy="189.579361" r="21.166656" gradientTransform="matrix(-0.00000017417,-0.0781325,0.140638,-0.000000101539,-22.362178,63.595333)">
<stop offset="0" style="stop-color:rgb(0%,0%,0%);stop-opacity:0.313725;"/>
<stop offset="0.222222" style="stop-color:rgb(0%,0%,0%);stop-opacity:0.27451;"/>
<stop offset="1" style="stop-color:rgb(0%,0%,0%);stop-opacity:0;"/>
</radialGradient>
<radialGradient id="radial3" gradientUnits="userSpaceOnUse" cx="450.908936" cy="189.579361" fx="450.908936" fy="189.579361" r="21.166656" gradientTransform="matrix(0.00000017417,0.0781325,-0.140638,0.000000101539,54.115211,-7.527479)">
<stop offset="0" style="stop-color:rgb(0%,0%,0%);stop-opacity:0.313725;"/>
<stop offset="0.222222" style="stop-color:rgb(0%,0%,0%);stop-opacity:0.27451;"/>
<stop offset="1" style="stop-color:rgb(0%,0%,0%);stop-opacity:0;"/>
</radialGradient>
<linearGradient id="linear1" gradientUnits="userSpaceOnUse" x1="296.333344" y1="233.5" x2="296.333344" y2="-147.5" gradientTransform="matrix(0.062506,0,0,0.062506,0,13.438783)">
<stop offset="0" style="stop-color:rgb(12.941176%,58.823529%,95.294118%);stop-opacity:1;"/>
<stop offset="1" style="stop-color:rgb(25.882353%,64.705882%,96.078431%);stop-opacity:1;"/>
</linearGradient>
<linearGradient id="linear2" gradientUnits="userSpaceOnUse" x1="254" y1="-147.5" x2="254" y2="233.5" gradientTransform="matrix(0.062506,0,0,0.062506,0,13.438783)">
<stop offset="0" style="stop-color:rgb(39.215686%,70.980392%,96.470588%);stop-opacity:1;"/>
<stop offset="1" style="stop-color:rgb(25.882353%,64.705882%,96.078431%);stop-opacity:1;"/>
</linearGradient>
<linearGradient id="linear3" gradientUnits="userSpaceOnUse" x1="959.999939" y1="1694.328125" x2="960" y2="254.328079" gradientTransform="matrix(0.264583,0,0,0.264583,0.00000666667,-214.790955)">
<stop offset="0" style="stop-color:rgb(12.941176%,58.823529%,95.294118%);stop-opacity:1;"/>
<stop offset="1" style="stop-color:rgb(25.882353%,64.705882%,96.078431%);stop-opacity:1;"/>
</linearGradient>
</defs>
<g id="surface1">
<path style=" stroke:none;fill-rule:nonzero;fill:url(#linear0);" d="M 3.96875 28.035156 L 27.785156 28.035156 L 27.785156 29.355469 L 3.96875 29.355469 Z M 3.96875 28.035156 "/>
<path style=" stroke:none;fill-rule:nonzero;fill:url(#radial0);" d="M 27.785156 28.035156 L 30.429688 28.035156 L 30.429688 26.710938 L 27.785156 26.710938 Z M 27.785156 28.035156 "/>
<path style=" stroke:none;fill-rule:nonzero;fill:url(#radial1);" d="M 3.96875 28.035156 L 1.324219 28.035156 L 1.324219 29.355469 L 3.96875 29.355469 Z M 3.96875 28.035156 "/>
<path style=" stroke:none;fill-rule:nonzero;fill:url(#radial2);" d="M 3.96875 28.035156 L 1.324219 28.035156 L 1.324219 26.710938 L 3.96875 26.710938 Z M 3.96875 28.035156 "/>
<path style=" stroke:none;fill-rule:nonzero;fill:url(#radial3);" d="M 27.785156 28.035156 L 30.429688 28.035156 L 30.429688 29.355469 L 27.785156 29.355469 Z M 27.785156 28.035156 "/>
<path style=" stroke:none;fill-rule:nonzero;fill:url(#linear1);" d="M 7.277344 4.21875 L 28.777344 4.21875 C 29.507812 4.21875 30.097656 4.8125 30.097656 5.542969 L 30.097656 10.503906 C 30.097656 11.234375 29.507812 11.828125 28.777344 11.828125 L 7.277344 11.828125 C 6.546875 11.828125 5.953125 11.234375 5.953125 10.503906 L 5.953125 5.542969 C 5.953125 4.8125 6.546875 4.21875 7.277344 4.21875 Z M 7.277344 4.21875 "/>
<path style=" stroke:none;fill-rule:nonzero;fill:rgb(90.196079%,90.196079%,90.196079%);fill-opacity:0.588235;" d="M 7.277344 4.21875 C 6.542969 4.21875 5.953125 4.808594 5.953125 5.542969 L 5.953125 5.707031 C 5.953125 4.972656 6.542969 4.382812 7.277344 4.382812 L 28.777344 4.382812 C 29.507812 4.382812 30.097656 4.972656 30.097656 5.707031 L 30.097656 5.542969 C 30.097656 4.808594 29.507812 4.21875 28.777344 4.21875 Z M 7.277344 4.21875 "/>
<path style=" stroke:none;fill-rule:nonzero;fill:rgb(12.941177%,12.941177%,12.941177%);fill-opacity:1;" d="M 7.277344 4.125 C 6.492188 4.125 5.859375 4.757812 5.859375 5.542969 L 5.859375 10.503906 C 5.859375 11.285156 6.492188 11.921875 7.277344 11.921875 L 28.777344 11.921875 C 29.558594 11.921875 30.191406 11.285156 30.191406 10.503906 L 30.191406 5.542969 C 30.191406 4.757812 29.558594 4.125 28.777344 4.125 Z M 7.277344 4.3125 L 28.777344 4.3125 C 29.457031 4.3125 30.003906 4.859375 30.003906 5.542969 L 30.003906 10.503906 C 30.003906 11.1875 29.457031 11.734375 28.777344 11.734375 L 7.277344 11.734375 C 6.59375 11.734375 6.046875 11.1875 6.046875 10.503906 L 6.046875 5.542969 C 6.046875 4.859375 6.59375 4.3125 7.277344 4.3125 Z M 7.277344 4.3125 "/>
<path style=" stroke:none;fill-rule:nonzero;fill:url(#linear2);" d="M 2.644531 6.863281 C 1.914062 6.863281 1.324219 7.457031 1.324219 8.1875 L 1.324219 26.710938 C 1.324219 27.445312 1.914062 28.035156 2.644531 28.035156 L 29.105469 28.035156 C 29.839844 28.035156 30.429688 27.445312 30.429688 26.710938 L 30.429688 10.171875 L 12.570312 10.171875 C 11.835938 10.171875 11.246094 9.582031 11.246094 8.851562 L 11.246094 6.863281 Z M 2.644531 6.863281 "/>
<path style=" stroke:none;fill-rule:nonzero;fill:rgb(0%,0%,0%);fill-opacity:0.196078;" d="M 2.644531 28.035156 C 1.914062 28.035156 1.324219 27.445312 1.324219 26.710938 L 1.324219 26.546875 C 1.324219 27.277344 1.914062 27.867188 2.644531 27.867188 L 29.105469 27.867188 C 29.839844 27.867188 30.429688 27.277344 30.429688 26.546875 L 30.429688 26.710938 C 30.429688 27.445312 29.839844 28.035156 29.105469 28.035156 Z M 2.644531 28.035156 "/>
<path style=" stroke:none;fill-rule:nonzero;fill:rgb(90.196079%,90.196079%,90.196079%);fill-opacity:0.937255;" d="M 2.644531 6.863281 C 1.914062 6.863281 1.324219 7.457031 1.324219 8.1875 L 1.324219 8.355469 C 1.324219 7.621094 1.914062 7.03125 2.644531 7.03125 L 11.246094 7.03125 L 11.246094 6.863281 Z M 2.644531 6.863281 "/>
<path style=" stroke:none;fill-rule:nonzero;fill:rgb(90.196079%,90.196079%,90.196079%);fill-opacity:0.937255;" d="M 12.484375 10.253906 C 11.753906 10.253906 11.164062 9.664062 11.164062 8.933594 L 11.164062 8.765625 C 11.164062 9.5 11.753906 10.089844 12.484375 10.089844 L 30.429688 10.089844 L 30.429688 10.253906 Z M 12.484375 10.253906 "/>
<path style=" stroke:none;fill-rule:nonzero;fill:rgb(12.941177%,12.941177%,12.941177%);fill-opacity:1;" d="M 2.644531 6.769531 C 1.863281 6.769531 1.230469 7.40625 1.230469 8.1875 L 1.230469 26.710938 C 1.230469 27.496094 1.863281 28.128906 2.644531 28.128906 L 29.105469 28.128906 C 29.890625 28.128906 30.523438 27.496094 30.523438 26.710938 L 30.523438 9.984375 L 12.570312 9.984375 C 11.886719 9.984375 11.339844 9.4375 11.339844 8.757812 L 11.339844 6.769531 Z M 2.644531 6.960938 L 11.152344 6.960938 L 11.152344 8.757812 C 11.152344 9.539062 11.785156 10.171875 12.570312 10.171875 L 30.335938 10.171875 L 30.335938 26.710938 C 30.335938 27.394531 29.789062 27.941406 29.105469 27.941406 L 2.644531 27.941406 C 1.964844 27.941406 1.417969 27.394531 1.417969 26.710938 L 1.417969 8.1875 C 1.417969 7.503906 1.964844 6.960938 2.644531 6.960938 Z M 2.644531 6.960938 "/>
<path style="fill-rule:nonzero;fill:url(#linear3);stroke-width:3;stroke-linecap:round;stroke-linejoin:miter;stroke:rgb(12.941177%,12.941177%,12.941177%);stroke-opacity:1;stroke-miterlimit:4;" d="M 188.919459 -9.957081 C 183.982431 -10.082069 179.920318 -4.457606 179.920318 0.854387 L 179.920318 133.154253 C 179.920318 139.028692 184.607371 143.715744 190.48181 143.778238 L 248.726248 154.33973 C 248.726248 154.33973 251.038527 159.651723 253.975747 159.651723 C 256.912966 159.651723 259.287739 154.33973 259.287739 154.33973 L 317.469683 143.778238 C 323.281628 142.71584 328.093669 139.028692 328.093669 133.154253 L 328.093669 0.854387 C 328.093669 -4.957558 323.15664 -11.206961 317.469683 -9.707104 L 259.287739 5.978898 C 259.287739 8.916117 256.912966 11.228396 253.975747 11.228396 C 251.038527 11.228396 248.726248 8.916117 248.726248 5.978898 Z M 188.919459 -9.957081 " transform="matrix(0.062506,0,0,0.062506,0,13.438783)"/>
</g>
</svg>

<svg xmlns="http://www.w3.org/2000/svg" width="32pt" height="32pt" viewBox="0 0 32 32"><defs><linearGradient id="a" gradientUnits="userSpaceOnUse" x1="254" y1="233.5" x2="254" y2="254.667" gradientTransform="matrix(.0625 0 0 .0625 0 13.439)"><stop offset="0" stop-opacity=".275"/><stop offset="1" stop-opacity="0"/></linearGradient><radialGradient id="b" gradientUnits="userSpaceOnUse" cx="450.909" cy="189.579" fx="450.909" fy="189.579" r="21.167" gradientTransform="matrix(0 -.07813 -.14064 0 54.115 63.595)"><stop offset="0" stop-opacity=".314"/><stop offset=".222" stop-opacity=".275"/><stop offset="1" stop-opacity="0"/></radialGradient><radialGradient id="c" gradientUnits="userSpaceOnUse" cx="450.909" cy="189.579" fx="450.909" fy="189.579" r="21.167" gradientTransform="matrix(0 .07813 .14064 0 -22.362 -7.527)"><stop offset="0" stop-opacity=".314"/><stop offset=".222" stop-opacity=".275"/><stop offset="1" stop-opacity="0"/></radialGradient><radialGradient id="d" gradientUnits="userSpaceOnUse" cx="450.909" cy="189.579" fx="450.909" fy="189.579" r="21.167" gradientTransform="matrix(0 -.07813 .14064 0 -22.362 63.595)"><stop offset="0" stop-opacity=".314"/><stop offset=".222" stop-opacity=".275"/><stop offset="1" stop-opacity="0"/></radialGradient><radialGradient id="e" gradientUnits="userSpaceOnUse" cx="450.909" cy="189.579" fx="450.909" fy="189.579" r="21.167" gradientTransform="matrix(0 .07813 -.14064 0 54.115 -7.527)"><stop offset="0" stop-opacity=".314"/><stop offset=".222" stop-opacity=".275"/><stop offset="1" stop-opacity="0"/></radialGradient><linearGradient id="f" gradientUnits="userSpaceOnUse" x1="296.333" y1="233.5" x2="296.333" y2="-147.5" gradientTransform="matrix(.0625 0 0 .0625 0 13.439)"><stop offset="0" stop-color="#2196f3"/><stop offset="1" stop-color="#42a5f5"/></linearGradient><linearGradient id="g" gradientUnits="userSpaceOnUse" x1="254" y1="-147.5" x2="254" y2="233.5" gradientTransform="matrix(.0625 0 0 .0625 0 13.439)"><stop offset="0" stop-color="#64b5f6"/><stop offset="1" stop-color="#42a5f5"/></linearGradient><linearGradient id="h" gradientUnits="userSpaceOnUse" x1="960" y1="1694.328" x2="960" y2="254.328" gradientTransform="matrix(.26458 0 0 .26458 0 -214.791)"><stop offset="0" stop-color="#2196f3"/><stop offset="1" stop-color="#42a5f5"/></linearGradient></defs><path d="M3.969 28.035h23.816v1.32H3.97zm0 0" fill="url(#a)"/><path d="M27.785 28.035h2.645v-1.324h-2.645zm0 0" fill="url(#b)"/><path d="M3.969 28.035H1.324v1.32H3.97zm0 0" fill="url(#c)"/><path d="M3.969 28.035H1.324v-1.324H3.97zm0 0" fill="url(#d)"/><path d="M27.785 28.035h2.645v1.32h-2.645zm0 0" fill="url(#e)"/><path d="M7.277 4.219h21.5c.73 0 1.32.593 1.32 1.324v4.96c0 .731-.59 1.325-1.32 1.325h-21.5c-.73 0-1.324-.594-1.324-1.324V5.543c0-.73.594-1.324 1.324-1.324zm0 0" fill="url(#f)"/><path d="M7.277 4.219a1.32 1.32 0 0 0-1.324 1.324v.164c0-.734.59-1.324 1.324-1.324h21.5c.73 0 1.32.59 1.32 1.324v-.164a1.32 1.32 0 0 0-1.32-1.324zm0 0" fill="#e6e6e6" fill-opacity=".588"/><path d="M7.277 4.125c-.785 0-1.418.633-1.418 1.418v4.96c0 .782.633 1.419 1.418 1.419h21.5c.782 0 1.414-.637 1.414-1.418V5.543c0-.785-.632-1.418-1.414-1.418zm0 .188h21.5c.68 0 1.227.546 1.227 1.23v4.96c0 .684-.547 1.231-1.227 1.231h-21.5c-.683 0-1.23-.546-1.23-1.23V5.543c0-.684.547-1.23 1.23-1.23zm0 0" fill="#212121"/><path d="M2.645 6.863c-.73 0-1.32.594-1.32 1.324v18.524c0 .734.59 1.324 1.32 1.324h26.46a1.32 1.32 0 0 0 1.325-1.324V10.17H12.57a1.32 1.32 0 0 1-1.324-1.32V6.864zm0 0" fill="url(#g)"/><path d="M2.645 28.035c-.73 0-1.32-.59-1.32-1.324v-.164c0 .73.59 1.32 1.32 1.32h26.46a1.32 1.32 0 0 0 1.325-1.32v.164a1.32 1.32 0 0 1-1.325 1.324zm0 0" fill-opacity=".196"/><path d="M2.645 6.863c-.73 0-1.32.594-1.32 1.324v.168c0-.734.59-1.324 1.32-1.324h8.601v-.168zm0 0M12.484 10.254c-.73 0-1.32-.59-1.32-1.32v-.168c0 .734.59 1.324 1.32 1.324H30.43v.164zm0 0" fill="#e6e6e6" fill-opacity=".937"/><path d="M2.645 6.77c-.782 0-1.415.636-1.415 1.418V26.71c0 .785.633 1.418 1.415 1.418h26.46c.786 0 1.418-.633 1.418-1.418V9.984H12.57c-.683 0-1.23-.546-1.23-1.226V6.77zm0 .19h8.507v1.798c0 .781.633 1.414 1.418 1.414h17.766V26.71c0 .684-.547 1.23-1.23 1.23H2.644c-.68 0-1.227-.546-1.227-1.23V8.188c0-.684.547-1.227 1.227-1.227zm0 0" fill="#212121"/><path d="M188.92-9.957c-4.938-.125-9 5.5-9 10.811v132.3c0 5.875 4.687 10.562 10.562 10.624l58.244 10.562s2.313 5.312 5.25 5.312 5.312-5.312 5.312-5.312l58.182-10.562c5.812-1.062 10.624-4.75 10.624-10.624V.854c0-5.812-4.937-12.061-10.624-10.561L259.288 5.979c0 2.937-2.375 5.25-5.312 5.25-2.937 0-5.25-2.313-5.25-5.25zm0 0" transform="matrix(.0625 0 0 .0625 0 13.439)" fill="url(#h)" stroke-width="3" stroke-linecap="round" stroke="#212121"/></svg>
